!!!COM: nicki-minaj
!!!OTL: super-bass
!!!RNB: hooktheoryid: vANmp_GEoyM
**kern	**text
*clefG2	*
*k[f#c#g#d#a#]	*
*M4/4	*
=1	=1
2r	.
8f#	.
8g#	.
8b	.
8cc#	.
=2	=2
4dd#	E
4cc#	.
8b	.
8b	.
8b	.
8g#	.
=3	=3
4f#	E
4r	.
8f#	.
8g#	.
8b	.
8cc#	.
=4	=4
4dd#	F#
8cc#	.
8b	.
8b	.
8b	.
8b	.
8g#	.
=5	=5
2f#	F#
8b	.
8b	.
8b	.
8b	.
=6	=6
8.b	G#m
16b	.
8b	.
8b	.
8.b	.
16b	.
8b	.
8b	.
=7	=7
8g#	G#m
8f#	.
8f#	.
8f#	.
8g#	.
8f#	.
4f#	.
=8	=8
8.b	E
16b	.
8b	.
8b	.
8.b	.
16b	.
8b	.
8b	.
=9	=9
8g#	E
8f#	.
8f#	.
8f#	.
8g#	.
8f#	.
4f#	.
=10	=10
1r	.
*-	*-